X: 63
T:The Pearl Wedding
% Nottingham Music Database
S:AA, via EF
M:4/4
L:1/4
K:D
A/F/|\
P:A
"D"DD/2E/2 "A7/e"D/2F/2A/2d/2|"D/f+"ff/2e/2 "G"d/2B/2B/2d/2|\
"D"F/2A/2A/2B/2 A/2F/2A/2d/2|"Em"c/2e/2e/2f/2 "A7"e/2c/2A/2F/2|
"D"DD/2E/2 "A7/e"D/2F/2A/2d/2|"D/f+"ff/2e/2 "G"d/2B/2B/2d/2|\
"D"F/2A/2A/2B/2 A/2F/2A/2d/2|"A7"c/2d/2e/2c/2 "D"d:|
P:B
f/2g/2|"D"aa/2g/2 fe/2d/2|"G"B/2d/2d/2B/2 "D"A/2F/2E/2F/2|\
"D"D/2F/2A/2d/2 f/2a/2f/2d/2|"Em"c/2e/2e/2f/2 "A7"ef/2g/2|
"D"aa/2g/2 fe/2d/2|"G"B/2d/2d/2B/2 "D"A/2F/2E/2F/2|\
"D"D/2F/2A/2D/2 F/2A/2A/2d/2|"A7"c/2d/2e/2c/2 "D"d:|<end>
<start>
